Themes/OneUI/assets/svg/sec_ic_settings_privacy.svg

<?xml version="1.0" encoding="UTF-8" standalone="no"?>
<svg
   width="28.000021"
   height="28.000021"
   viewBox="0 0 28.000021 28.000021"
   fill="none"
   version="1.1"
   id="svg2117"
   sodipodi:docname="sec_ic_settings_privacy.svg"
   xmlns:inkscape="http://www.inkscape.org/namespaces/inkscape"
   xmlns:sodipodi="http://sodipodi.sourceforge.net/DTD/sodipodi-0.dtd"
   xmlns="http://www.w3.org/2000/svg"
   xmlns:svg="http://www.w3.org/2000/svg">
  <sodipodi:namedview
     id="namedview2119"
     pagecolor="#ffffff"
     bordercolor="#666666"
     borderopacity="1.0"
     inkscape:showpageshadow="2"
     inkscape:pageopacity="0.0"
     inkscape:pagecheckerboard="0"
     inkscape:deskcolor="#d1d1d1" />
  <g
     clip-path="url(#clip0_1_1367)"
     id="g2110">
    <path
       d="M 24.856,3.14401 C 23.13,1.52161 20.7739,0.601214 18.1738,0.256914 15.6907,-0.072186 14,0.00881404 14,0.00881404 c 0,0 -1.691,-0.08100004 -4.17421,0.24809996 -2.6,0.3443 -4.956,1.264696 -6.6815,2.887096 -1.6228,1.7258 -2.543099,4.0819 -2.887599,6.6819 -0.3291004,2.48299 -0.2478004,4.17399 -0.2478004,4.17399 0,0 -0.0813,1.6908 0.2478004,4.174 0.3445,2.5998 1.264799,4.9561 2.887399,6.6819 1.7257,1.6226 4.0817,2.5428 6.6817,2.8875 C 12.309,28.0722 14,27.9912 14,27.9912 c 0,0 1.6907,0.081 4.1738,-0.2479 2.6001,-0.3447 4.9562,-1.2649 6.6818,-2.8875 1.623,-1.7258 2.5432,-4.0821 2.8877,-6.6819 0.3289,-2.4832 0.2479,-4.174 0.2479,-4.174 0,0 0.081,-1.691 -0.2479,-4.17399 -0.3445,-2.6 -1.2647,-4.9561 -2.8873,-6.6819 z"
       fill="#7ba2f1"
       id="path2106" />
    <path
       d="m 16.7566,16.6016 c -0.7925,0.5194 -1.7393,0.8232 -2.7561,0.8232 -1.0178,0 -1.9636,-0.3038 -2.7571,-0.8232 v -0.5683 c 0,-1.2343 1.2343,-2.3824 2.7571,-2.3824 1.5218,0 2.7571,1.1481 2.7561,2.3824 z M 14.0005,9.53967 c 0.8759,0 1.586,0.71013 1.586,1.58603 0,0.8759 -0.7101,1.586 -1.586,1.586 -0.8769,0 -1.5861,-0.7101 -1.5861,-1.586 0,-0.8759 0.7092,-1.58603 1.5861,-1.58603 z m 5.6168,-2.2061 c -1.8544,-0.2827 -3.3983,-0.8232 -5.0188,-1.5851 -0.3786,-0.1783 -0.8184,-0.1783 -1.197,0 -1.6196,0.7619 -3.1644,1.3024 -5.0188,1.5851 -0.6957,0.1063 -1.2142,0.6976 -1.2142,1.4011 v 5.15583 c 0,2.4648 1.0676,4.6201 3.1711,6.4084 1.2305,1.0445 2.5435,1.7077 3.2996,2.0153 0.2319,0.0949 0.4897,0.0949 0.7216,0 0.7571,-0.3076 2.07,-0.9708 3.3005,-2.0153 2.1036,-1.7883 3.1702,-3.9436 3.1702,-6.4084 V 8.73467 c 0,-0.7035 -0.5185,-1.2948 -1.2142,-1.4011 z"
       fill="#ffffff"
       id="path2108" />
  </g>
  <defs
     id="defs2115">
    <clipPath
       id="clip0_1_1367">
      <rect
         width="28"
         height="28"
         fill="#ffffff"
         id="rect2112"
         x="0"
         y="0" />
    </clipPath>
  </defs>
</svg>

<svg width="28" height="28" viewBox="0 0 28 28" fill="none" xmlns="http://www.w3.org/2000/svg">
<g clip-path="url(#clip0_1_1367)">
<path d="M24.856 3.14401C23.13 1.52161 20.7739 0.601214 18.1738 0.256914C15.6907 -0.072186 14 0.00881404 14 0.00881404C14 0.00881404 12.309 -0.072186 9.82579 0.256914C7.22579 0.601214 4.86979 1.52161 3.14429 3.14401C1.52149 4.86981 0.601191 7.22591 0.256691 9.82591C-0.0724094 12.3089 0.0088906 13.9999 0.0088906 13.9999C0.0088906 13.9999 -0.0724094 15.6907 0.256691 18.1739C0.601191 20.7737 1.52149 23.13 3.14409 24.8558C4.86979 26.4784 7.22579 27.3986 9.82579 27.7433C12.309 28.0722 14 27.9912 14 27.9912C14 27.9912 15.6907 28.0722 18.1738 27.7433C20.7739 27.3986 23.13 26.4784 24.8556 24.8558C26.4786 23.13 27.3988 20.7737 27.7433 18.1739C28.0722 15.6907 27.9912 13.9999 27.9912 13.9999C27.9912 13.9999 28.0722 12.3089 27.7433 9.82591C27.3988 7.22591 26.4786 4.86981 24.856 3.14401Z" fill="#7BA2F1"/>
<path d="M16.7566 16.6016C15.9641 17.121 15.0173 17.4248 14.0005 17.4248C12.9827 17.4248 12.0369 17.121 11.2434 16.6016V16.0333C11.2434 14.799 12.4777 13.6509 14.0005 13.6509C15.5223 13.6509 16.7576 14.799 16.7566 16.0333V16.6016ZM14.0005 9.53967C14.8764 9.53967 15.5865 10.2498 15.5865 11.1257C15.5865 12.0016 14.8764 12.7117 14.0005 12.7117C13.1236 12.7117 12.4144 12.0016 12.4144 11.1257C12.4144 10.2498 13.1236 9.53967 14.0005 9.53967ZM19.6173 7.33357C17.7629 7.05087 16.219 6.51037 14.5985 5.74847C14.2199 5.57017 13.7801 5.57017 13.4015 5.74847C11.7819 6.51037 10.2371 7.05087 8.3827 7.33357C7.687 7.43987 7.1685 8.03117 7.1685 8.73467V13.8905C7.1685 16.3553 8.2361 18.5106 10.3396 20.2989C11.5701 21.3434 12.8831 22.0066 13.6392 22.3142C13.8711 22.4091 14.1289 22.4091 14.3608 22.3142C15.1179 22.0066 16.4308 21.3434 17.6613 20.2989C19.7649 18.5106 20.8315 16.3553 20.8315 13.8905V8.73467C20.8315 8.03117 20.313 7.43987 19.6173 7.33357Z" fill="white"/>
</g>
<defs>
<clipPath id="clip0_1_1367">
<rect width="28" height="28" fill="white"/>
</clipPath>
</defs>
</svg>
